X: 8012
T: Tullochgorum
O: Trad.
R: strathspey
Z: John Chambers <jc:trillian.mit.edu>
N: A highly variable tune, in most old Scottish collections.
N: First known publication by Robert Bremner, 1757.
N: RSCDS 8-1
N: Wm. Campbell's Eleventh Book, 1796
N: Allan's p.15
N: BSFC I-58
N: Caledonian Companion, p.109.
N: Carlin, #226.
N: H&C p.68
N: Hardie p.109
N: Mel Bay 137
N: OTDT p.69
N: SV p.26 (lots of variations)
N: Skye p.87 (with variation)
D: Harvey Tolman on his tape
M: 4/4
L: 1/8
%--------------------
K: GMix
|: c/ \
| "G"B<G d>G "F"c<F A2 | "G"B<G d>G B>c d<g \
| "G"B<G d>G "F"c<F A>c | "G"B<G d>G "D"A/B/c B> :|
[| A \
| "G"G>g d>e "F"f>F A2 | "G"G>g d<g B<g d<g \
| "G"G>g d>e "F"f>F A2 | "G"G>g d<g "D"A/B/c B>A ||
|| "G"G>g d>e "F"f>F A2 | "G"G>g d<g "F"f>g a>f \
| a/g/f/e/ f>d c<F A<a | "G"g>d g>_b "C"e<g "D"d> |]
%%center Book08/08011-Tullochgorum-1.abc

%%sep 1 1 500
%%sep 1 1 500

